icons/grid-line.svg

<svg xmlns="http://www.w3.org/2000/svg" viewBox="0 0 24 24">
    <g>
        <path fill="none" d="M0 0h24v24H0z"/>
        <path d="M14 10h-4v4h4v-4zm2 0v4h3v-4h-3zm-2 9v-3h-4v3h4zm2 0h3v-3h-3v3zM14 5h-4v3h4V5zm2 0v3h3V5h-3zm-8 5H5v4h3v-4zm0 9v-3H5v3h3zM8 5H5v3h3V5zM4 3h16a1 1 0 0 1 1 1v16a1 1 0 0 1-1 1H4a1 1 0 0 1-1-1V4a1 1 0 0 1 1-1z"/>
    </g>
</svg>

<svg viewBox="0 0 24 24" fill="currentColor" xmlns="http://www.w3.org/2000/svg"><path d="M14 10H10V14H14V10ZM16 10V14H19V10H16ZM14 19V16H10V19H14ZM16 19H19V16H16V19ZM14 5H10V8H14V5ZM16 5V8H19V5H16ZM8 10H5V14H8V10ZM8 19V16H5V19H8ZM8 5H5V8H8V5ZM4 3H20C20.5523 3 21 3.44772 21 4V20C21 20.5523 20.5523 21 20 21H4C3.44772 21 3 20.5523 3 20V4C3 3.44772 3.44772 3 4 3Z"/></svg>
